X:1

T:Barney Brallaghan

M:9/8

L:1/8
R:Slip Jig

S:White’s Unique Collection (1896), No. 17

K:D

F2A ABA ABA | F2A ABc def | F2A ABA ABA | Bcd (ef)d cBA |

F2A ABA ABA | F2A ABc def | F2A ABA ABA | Bcd (ef)d cBA ||

|: f2a f2a (gf)e | f2a f2a (gf)e | f2a f2a (g2)e | f2a f2a (gf)e |

cde (ef)d cBA :: f2z a2zd2z | g2f e2d cBA | f2ze2zd2z | B2B A2G FED :|

